cinema.svg

<?xml version="1.0" encoding="iso-8859-1"?>
<!-- Generator: Adobe Illustrator 19.0.0, SVG Export Plug-In . SVG Version: 6.00 Build 0)  -->
<svg version="1.1" id="Layer_1" xmlns="http://www.w3.org/2000/svg" xmlns:xlink="http://www.w3.org/1999/xlink" x="0px" y="0px"
	 viewBox="0 0 297 297" style="enable-background:new 0 0 297 297;" xml:space="preserve">
<g>
	<g>
		<circle style="fill:#17AB93;" cx="148.5" cy="148.5" r="148.5"/>
	</g>
	<path style="fill:#0A7C66;" d="M296.177,164.177L247.5,115.5L54.194,242.408l46.843,46.843C115.94,294.275,131.902,297,148.5,297
		C225.219,297,288.344,238.821,296.177,164.177z"/>
	<g>
		<path style="fill:#32373B;" d="M230.833,247.5H66.166c-9.205,0-16.666-7.462-16.666-16.667V115.5h198v115.333
			C247.5,240.038,240.038,247.5,230.833,247.5z"/>
	</g>
	<g>
		<rect x="49.5" y="115.5" style="fill:#495054;" width="198" height="33"/>
	</g>
	<g>
		<path style="fill:#495054;" d="M246.623,96.61L49.526,115.5l-2.321-24.218c-0.457-4.767,3.037-9.002,7.804-9.459l179.833-17.236
			c4.767-0.457,9.002,3.037,9.459,7.804L246.623,96.61z"/>
	</g>
	<g>
		<path style="fill:#22272B;" d="M148.834,115.5v132h82c9.205,0,16.667-7.462,16.667-16.667V115.5H148.834z"/>
	</g>
	<g>
		<rect x="148.834" y="115.5" style="fill:#384044;" width="98.666" height="33"/>
	</g>
	<g>
		<path style="fill:#384044;" d="M244.302,72.392c-0.457-4.767-4.692-8.261-9.459-7.804l-86.009,8.243v33.151l97.789-9.372
			L244.302,72.392z"/>
	</g>
	<g>
		<polygon style="fill:#ECF0F1;" points="82.5,148.5 66,148.5 82.5,115.5 99,115.5 		"/>
	</g>
	<g>
		<polygon style="fill:#ECF0F1;" points="115.5,148.5 99,148.5 115.5,115.5 132,115.5 		"/>
	</g>
	<g>
		<polygon style="fill:#D0D5D9;" points="181.5,148.5 165,148.5 181.5,115.5 198,115.5 		"/>
	</g>
	<g>
		<polygon style="fill:#D0D5D9;" points="214.5,148.5 198,148.5 214.5,115.5 231,115.5 		"/>
	</g>
	<g>
		<polygon style="fill:#ECF0F1;" points="82.375,112.352 65.951,113.926 79.227,79.502 95.652,77.928 		"/>
	</g>
	<g>
		<polygon style="fill:#ECF0F1;" points="115.225,109.203 98.8,110.777 112.076,76.354 128.501,74.78 		"/>
	</g>
	<g>
		<polygon style="fill:#D0D5D9;" points="180.924,102.906 164.499,104.481 177.775,70.057 194.2,68.483 		"/>
	</g>
	<g>
		<polygon style="fill:#D0D5D9;" points="213.773,99.758 197.348,101.332 210.625,66.908 227.049,65.334 		"/>
	</g>
	<g>
		<polygon style="fill:#ECF0F1;" points="148.5,148.5 132,148.5 148.5,115.5 165,115.5 		"/>
	</g>
	<g>
		<polygon style="fill:#ECF0F1;" points="148.074,106.055 131.649,107.629 144.926,73.205 161.351,71.631 		"/>
	</g>
	<g>
		<polygon style="fill:#D0D5D9;" points="148.834,115.5 148.834,147.833 165,115.5 		"/>
	</g>
	<g>
		<polygon style="fill:#D0D5D9;" points="148.834,72.831 148.834,104.086 161.351,71.631 		"/>
	</g>
	<g>
		<rect x="82.5" y="165" style="fill:#9ADAD9;" width="132" height="49.5"/>
	</g>
	<g>
		<rect x="148.834" y="165" style="fill:#7EBCB9;" width="65.666" height="49.5"/>
	</g>
</g>
<g>
</g>
<g>
</g>
<g>
</g>
<g>
</g>
<g>
</g>
<g>
</g>
<g>
</g>
<g>
</g>
<g>
</g>
<g>
</g>
<g>
</g>
<g>
</g>
<g>
</g>
<g>
</g>
<g>
</g>
</svg>

<svg xmlns="http://www.w3.org/2000/svg" height="300" width="300" viewBox="0 0 300 300"><style>.a{fill:#495054;}.b{fill:#384044;}.c{fill:#ecf0f1;}.d{fill:#d0d5d9;}</style><g transform="scale(1.010101 1.010101)"><circle cx="148.5" cy="148.5" r="148.5" fill="#17ab93"/><path d="M296.2 164.2 247.5 115.5 54.2 242.4l46.8 46.8c14.9 5 30.9 7.7 47.5 7.7 76.7 0 139.8-58.2 147.7-132.8z" fill="#0a7c66"/><path d="m230.8 247.5-164.7 0C57 247.5 49.5 240 49.5 230.8l0-115.3 198 0 0 115.3c0 9.2-7.5 16.7-16.7 16.7z" fill="#32373b"/><rect x="49.5" y="115.5" width="198" height="33" class="a"/><path d="M246.6 96.6 49.5 115.5 47.2 91.3c-0.5-4.8 3-9 7.8-9.5L234.8 64.6c4.8-0.5 9 3 9.5 7.8l2.3 24.2z" class="a"/><path d="m148.8 115.5 0 132 82 0c9.2 0 16.7-7.5 16.7-16.7l0-115.3-98.7 0z" fill="#22272b"/><rect x="148.8" y="115.5" width="98.7" height="33" class="b"/><path d="m244.3 72.4c-0.5-4.8-4.7-8.3-9.5-7.8l-86 8.2 0 33.2 97.8-9.4-2.3-24.2z" class="b"/><polygon points="82.5 148.5 66 148.5 82.5 115.5 99 115.5 " class="c"/><polygon points="115.5 148.5 99 148.5 115.5 115.5 132 115.5 " class="c"/><polygon points="181.5 148.5 165 148.5 181.5 115.5 198 115.5 " class="d"/><polygon points="214.5 148.5 198 148.5 214.5 115.5 231 115.5 " class="d"/><polygon points="82.4 112.4 66 113.9 79.2 79.5 95.7 77.9 " class="c"/><polygon points="115.2 109.2 98.8 110.8 112.1 76.4 128.5 74.8 " class="c"/><polygon points="180.9 102.9 164.5 104.5 177.8 70.1 194.2 68.5 " class="d"/><polygon points="213.8 99.8 197.3 101.3 210.6 66.9 227 65.3 " class="d"/><polygon points="148.5 148.5 132 148.5 148.5 115.5 165 115.5 " class="c"/><polygon points="148.1 106.1 131.6 107.6 144.9 73.2 161.4 71.6 " class="c"/><polygon points="165 115.5 148.8 115.5 148.8 147.8 " class="d"/><polygon points="161.4 71.6 148.8 72.8 148.8 104.1 " class="d"/><rect x="82.5" y="165" width="132" height="49.5" fill="#9adad9"/><rect x="148.8" y="165" width="65.7" height="49.5" fill="#7ebcb9"/></g></svg>
